plasma/desktoptheme/Arc-Color/icons/konv_message.svg

<svg xmlns="http://www.w3.org/2000/svg" width="32" height="32" version="1.1">
 <defs>
  <style id="current-color-scheme" type="text/css">
   .ColorScheme-Background {color:#2f343f; } .ColorScheme-ButtonBackground { color:#444a58; } .ColorScheme-Highlight { color:#5c87cc; } .ColorScheme-Text { color:#d3dae3; } .ColorScheme-NegativeText { color:#f44336; } .ColorScheme-PositiveText { color:#4caf50; } .ColorScheme-NeutralText { color:#ff9800; }
  </style>
 </defs>
 <g id="22-22-konv_message" transform="translate(0,-1.9073486e-6)">
  <rect style="opacity:0.001" width="22" height="22" x="32" y="10"/>
  <path style="fill:currentColor" class="ColorScheme-Text" d="m 48.240234,14.000313 a 0.73690325,0.65014443 0 0 0 -0.185547,0.02539 l -12.52539,3.250355 A 0.73690325,0.65014443 0 0 0 35,17.899173 v 5.201741 a 0.73690325,0.65014443 0 0 0 0.529297,0.623115 L 37,24.10493 V 29 h 2 v -4.375478 l 9.054687,2.349866 A 0.73690325,0.65014443 0 0 0 49,26.351273 v -3.351929 h 2 v -5.000547 h -2 v -0.0059 -3.344115 a 0.73690325,0.65014443 0 0 0 -0.759766,-0.648509 z"/>
  <circle style="fill:currentColor" class="ColorScheme-Highlight" cx="35" cy="14" r="2"/>
 </g>
 <g id="konv_message">
  <rect style="opacity:0.001" width="32" height="32" x="0" y="0"/>
  <path style="fill:currentColor" class="ColorScheme-Text" d="m 23.860352,4.950468 c -0.09423,0.00217 -0.187767,0.014971 -0.27832,0.038085 L 4.7939458,9.8640855 C 4.3237023,9.9859028 4.0005237,10.366365 4.0000003,10.798759 v 7.402136 c 5.242e-4,0.432393 0.3237026,0.812855 0.7939455,0.934672 l 2.2060546,0.571351 V 27 H 9.9999998 V 20.486307 L 23.582032,24.011105 C 24.289817,24.19523 24.999448,23.727466 25,23.076433 V 18 h 3 V 11.00445 H 25 V 10.99555 5.9231209 C 24.9987,5.3734676 24.483055,4.933354 23.860352,4.950408 Z"/>
  <circle style="fill:currentColor" class="ColorScheme-Highlight" cx="5" cy="5" r="3"/>
 </g>
</svg>

<?xml version="1.0" encoding="UTF-8"?>
<svg width="32" height="32" version="1.1" xmlns="http://www.w3.org/2000/svg">
 <defs>
  <style id="current-color-scheme" type="text/css">.ColorScheme-Background {color:#2f343f; } .ColorScheme-ButtonBackground { color:#444a58; } .ColorScheme-Highlight { color:#5c87cc; } .ColorScheme-Text { color:#d3dae3; } .ColorScheme-NegativeText { color:#f44336; } .ColorScheme-PositiveText { color:#4caf50; } .ColorScheme-NeutralText { color:#ff9800; }</style>
 </defs>
 <g id="22-22-konv_message" transform="translate(0 -1.9073e-6)">
  <rect x="32" y="10" width="22" height="22" opacity=".001"/>
  <path class="ColorScheme-Text" d="m48.24 14a0.7369 0.65014 0 0 0-0.18555 0.02539l-12.525 3.2504a0.7369 0.65014 0 0 0-0.5293 0.62312v5.2017a0.7369 0.65014 0 0 0 0.5293 0.62312l1.4707 0.3809v4.8951h2v-4.3755l9.0547 2.3499a0.7369 0.65014 0 0 0 0.94531-0.62312v-3.3519h2v-5.0005h-2v-3.35a0.7369 0.65014 0 0 0-0.75977-0.64851z" fill="currentColor"/>
  <circle class="ColorScheme-Highlight" cx="35" cy="14" r="2" fill="currentColor"/>
 </g>
 <g id="konv_message">
  <rect width="32" height="32" opacity=".001"/>
  <path class="ColorScheme-Text" d="m23.86 4.9505c-0.09423 0.00217-0.18777 0.014971-0.27832 0.038085l-18.788 4.8755c-0.47024 0.12182-0.79342 0.50228-0.79395 0.93467v7.4021c5.242e-4 0.43239 0.3237 0.81286 0.79395 0.93467l2.2061 0.57135v7.2931h3v-6.5137l13.582 3.5248c0.70778 0.18412 1.4174-0.28364 1.418-0.93467v-5.0764h3v-6.9956h-3v-5.0813c-0.0013-0.54965-0.51694-0.98977-1.1396-0.97271z" fill="currentColor"/>
  <circle class="ColorScheme-Highlight" cx="5" cy="5" r="3" fill="currentColor"/>
 </g>
</svg>
